svg/fluentui-system-icons/ic_fluent_phone_update_checkmark_24_filled.svg

<svg width="24" height="24" viewBox="0 0 24 24" fill="none" xmlns="http://www.w3.org/2000/svg">
<path d="M8.25 22H12.8096C11.6888 20.8321 11 19.2465 11 17.5C11 16.8787 11.0872 16.2778 11.2499 15.7087L11.2493 9.50809L10.2887 10.4692L10.2045 10.5418C9.91093 10.7597 9.49427 10.7355 9.228 10.4692C8.96174 10.2029 8.93753 9.78626 9.15538 9.49265L9.228 9.40853L11.4697 7.16687L11.5218 7.11935L11.5767 7.07799L11.6535 7.03179L11.7651 6.9847L11.8615 6.95996L11.9532 6.94865H12.0468L12.1393 6.96017L12.2019 6.97468L12.3026 7.01073L12.3631 7.04079L12.4296 7.08229L12.4921 7.13123L12.5303 7.16687L14.772 9.40853L14.8446 9.49265C15.0383 9.75364 15.0407 10.1119 14.8518 10.3752L14.772 10.4692L14.6879 10.5418C14.4269 10.7355 14.0687 10.7379 13.8053 10.549L13.7113 10.4692L12.7493 9.50809L12.7497 13.0632C13.936 11.7936 15.6253 11 17.5 11C17.6682 11 17.835 11.0064 18 11.0189V4.25C18 3.00736 16.9926 2 15.75 2H8.25C7.00736 2 6 3.00736 6 4.25V19.75C6 20.9926 7.00736 22 8.25 22ZM23 17.5C23 20.5376 20.5376 23 17.5 23C14.4624 23 12 20.5376 12 17.5C12 14.4624 14.4624 12 17.5 12C20.5376 12 23 14.4624 23 17.5ZM20.8536 15.1464C20.6583 14.9512 20.3417 14.9512 20.1464 15.1464L16.5 18.7929L14.8536 17.1464C14.6583 16.9512 14.3417 16.9512 14.1464 17.1464C13.9512 17.3417 13.9512 17.6583 14.1464 17.8536L16.1464 19.8536C16.3417 20.0488 16.6583 20.0488 16.8536 19.8536L20.8536 15.8536C21.0488 15.6583 21.0488 15.3417 20.8536 15.1464Z" fill="#212121"/>
</svg>

<svg xmlns="http://www.w3.org/2000/svg" width="24" height="24"><path d="M8.25 22h4.56A6.478 6.478 0 0 1 11 17.5c0-.621.087-1.222.25-1.791v-6.2l-.961.96-.085.073a.75.75 0 0 1-1.049-1.05l.073-.083 2.242-2.242.052-.048.055-.041.076-.046.112-.047.096-.025.092-.011h.094l.092.011.063.015.1.036.061.03.067.041.062.05.038.035 2.242 2.242.073.084a.75.75 0 0 1 .007.882l-.08.094-.084.073a.75.75 0 0 1-.883.007l-.094-.08-.962-.96v3.554A6.482 6.482 0 0 1 18 11.02V4.25A2.25 2.25 0 0 0 15.75 2h-7.5A2.25 2.25 0 0 0 6 4.25v15.5A2.25 2.25 0 0 0 8.25 22ZM23 17.5a5.5 5.5 0 1 1-11 0 5.5 5.5 0 0 1 11 0Zm-2.146-2.354a.5.5 0 0 0-.708 0L16.5 18.793l-1.646-1.647a.5.5 0 0 0-.708.708l2 2a.5.5 0 0 0 .708 0l4-4a.5.5 0 0 0 0-.708Z"/></svg>
